blockchains/elrond/assets/BMI-81000e/logo.svg

<svg fill="none" height="238" viewBox="0 0 238 238" width="238" xmlns="http://www.w3.org/2000/svg"><circle cx="119.564" cy="118.436" fill="#fff" r="117.308"/><path d="m112.354 82.036c8.676 0 16.459 2.2329 23.349 6.6985 6.89 4.3381 12.249 10.5263 16.076 18.5645 3.828 7.911 5.742 17.161 5.742 27.751 0 10.462-1.978 19.713-5.933 27.751-3.828 7.911-9.187 14.099-16.076 18.565-6.763 4.338-14.546 6.507-23.35 6.507-7.017 0-13.2691-1.34-18.7555-4.019-5.4864-2.68-9.6331-6.444-12.4401-11.292h-.7655v13.014h-21.4353v-138.5637h22.5836v48.9949h.7655c2.807-4.3381 6.8262-7.7192 12.0574-10.1435 5.2312-2.5518 11.2919-3.8277 18.1819-3.8277zm-5.168 88.229c8.549 0 15.247-3.126 20.096-9.378 4.976-6.252 7.464-14.864 7.464-25.837s-2.488-19.585-7.464-25.837c-4.849-6.252-11.547-9.3781-20.096-9.3781-8.4206 0-15.1192 3.1261-20.0952 9.3781-4.8485 6.252-7.2727 14.864-7.2727 25.837s2.4242 19.585 7.2727 25.837c4.976 6.252 11.6746 9.378 20.0952 9.378z" fill="#243237"/><circle cx="166.707" cy="174.313" fill="#268bc4" r="14.2016"/></svg>

<svg width="238" height="238" viewBox="0 0 238 238" fill="none" xmlns="http://www.w3.org/2000/svg">
<circle cx="119.564" cy="118.436" r="117.308" fill="white"/>
<path d="M112.354 82.036C121.03 82.036 128.813 84.2689 135.703 88.7345C142.593 93.0726 147.952 99.2608 151.779 107.299C155.607 115.21 157.521 124.46 157.521 135.05C157.521 145.512 155.543 154.763 151.588 162.801C147.76 170.712 142.401 176.9 135.512 181.366C128.749 185.704 120.966 187.873 112.162 187.873C105.145 187.873 98.8929 186.533 93.4065 183.854C87.9201 181.174 83.7734 177.41 80.9664 172.562H80.2009V185.576H58.7656V47.0123H81.3492V96.0072H82.1147C84.9217 91.6691 88.9409 88.288 94.1721 85.8637C99.4033 83.3119 105.464 82.036 112.354 82.036ZM107.186 170.265C115.735 170.265 122.433 167.139 127.282 160.887C132.258 154.635 134.746 146.023 134.746 135.05C134.746 124.077 132.258 115.465 127.282 109.213C122.433 102.961 115.735 99.8349 107.186 99.8349C98.7654 99.8349 92.0668 102.961 87.0908 109.213C82.2423 115.465 79.8181 124.077 79.8181 135.05C79.8181 146.023 82.2423 154.635 87.0908 160.887C92.0668 167.139 98.7654 170.265 107.186 170.265Z" fill="#243237"/>
<circle cx="166.707" cy="174.313" r="14.2016" fill="#268BC4"/>
</svg>
